images/clock.svg

<svg width="24" height="24" fill="none" xmlns="http://www.w3.org/2000/svg"><path d="M12 24C5.4 24 0 18.6 0 12S5.4 0 12 0s12 5.4 12 12-5.4 12-12 12Zm0-22C6.5 2 2 6.5 2 12s4.5 10 10 10 10-4.5 10-10S17.5 2 12 2Z" fill="#F7931E"/><path d="M12 13c-.6 0-1-.4-1-1V5c0-.6.4-1 1-1s1 .4 1 1v7c0 .6-.4 1-1 1Z" fill="#F7931E"/><path d="M16 17c-.3 0-.5-.1-.7-.3l-4-4c-.4-.4-.4-1 0-1.4.4-.4 1-.4 1.4 0l4 4c.4.4.4 1 0 1.4-.2.2-.4.3-.7.3Z" fill="#F7931E"/></svg>

<svg width="24" height="24" viewBox="0 0 24 24" fill="none" xmlns="http://www.w3.org/2000/svg">
<path d="M12 24C5.4 24 0 18.6 0 12C0 5.4 5.4 0 12 0C18.6 0 24 5.4 24 12C24 18.6 18.6 24 12 24ZM12 2C6.5 2 2 6.5 2 12C2 17.5 6.5 22 12 22C17.5 22 22 17.5 22 12C22 6.5 17.5 2 12 2Z" fill="#F7931E"/>
<path d="M12 13C11.4 13 11 12.6 11 12V5C11 4.4 11.4 4 12 4C12.6 4 13 4.4 13 5V12C13 12.6 12.6 13 12 13Z" fill="#F7931E"/>
<path d="M16 17C15.7 17 15.5 16.9 15.3 16.7L11.3 12.7C10.9 12.3 10.9 11.7 11.3 11.3C11.7 10.9 12.3 10.9 12.7 11.3L16.7 15.3C17.1 15.7 17.1 16.3 16.7 16.7C16.5 16.9 16.3 17 16 17Z" fill="#F7931E"/>
</svg>
